icons/linear-new-sound-broadcast-volume-off.svg

<svg xmlns="http://www.w3.org/2000/svg" width="32px" height="32px" viewBox="0 0 32 32" version="1.1">
    <title>linear-new-sound-broadcast-volume-off</title>
    <g id="linear-new-sound-broadcast-volume-off" stroke-width="1" fill-rule="evenodd">
        <path d="M23,13.2419952 L23,29 C23,29.8909049 21.9228581,30.3370716 21.2928932,29.7071068 L14.585,23 L13.243,22.9999952 L15.2179636,21.0240394 C15.3593081,21.0556094 15.4925133,21.1176083 15.6080295,21.2060806 L15.7071068,21.2928932 L21,26.585 L21,15.2419952 L23,13.2419952 Z M23,3 L23,7.58399525 L26.2928932,4.29289322 C26.6834175,3.90236893 27.3165825,3.90236893 27.7071068,4.29289322 C28.0976311,4.68341751 28.0976311,5.31658249 27.7071068,5.70710678 L5.70710678,27.7071068 C5.31658249,28.0976311 4.68341751,28.0976311 4.29289322,27.7071068 C3.90236893,27.3165825 3.90236893,26.6834175 4.29289322,26.2928932 L8.1160463,22.4681886 C8.05927239,22.3610198 8.02133427,22.2423786 8.00672773,22.1166211 L8,22 L8,10 C8,9.44771525 8.44771525,9 9,9 L14.584,9 L21.2928932,2.29289322 C21.9228581,1.66292836 23,2.10909515 23,3 Z M21,5.414 L15.7071068,10.7071068 C15.5195704,10.8946432 15.2652165,11 15,11 L10,11 L10,20.5839952 L21,9.58399525 L21,5.414 Z" id="&#24418;&#29366;" fill-rule="nonzero" />
    </g>
</svg>

<svg xmlns="http://www.w3.org/2000/svg" viewBox="0 0 32 32"><path fill="currentColor" d="M23 13.242V29c0 .89-1.077 1.337-1.707.707L14.585 23h-1.342l1.975-1.976a1 1 0 0 1 .39.182l.1.087L21 26.585V15.242zM23 3v4.584l3.293-3.291a1 1 0 0 1 1.414 1.414l-22 22a1 1 0 1 1-1.414-1.414l3.823-3.825a.995.995 0 0 1-.11-.351L8 22V10a1 1 0 0 1 1-1h5.584l6.709-6.707C21.923 1.663 23 2.109 23 3m-2 2.414-5.293 5.293A1 1 0 0 1 15 11h-5v9.584l11-11z"/></svg>
